!!! OTL: Berkowitz293
!!! Chapter: 1
!!! Section: III
!!! Page: 70
!!! Mode: 
!!! Encoder: DJB
**kern
*staff1
*I"Piano
=1-
*clefG2
*k[]
*C:
*M4/4
2r
8r
8B/L
8c/
8d/J
=2
4.e/
8b\
4.a/
8e/
=3
4.f/
8cc\
4.b\
8f#/
=4
4g/
4ee\
8dd\L
8cc\
8b\
8a\J
=5
2g/
8r
8b/L
8a/
8g/J
=6
2c/
8r
8a/L
8g/
8f/J
=7
2B/
8r
8c/L
8e/
8b/J
=8
!!linebreak:original
4.g/
8e/
8g/L
8f/
8A/
8B/J
=9
2e/
2d/
=10
8r
8d/L
8e/
8f/J
8e/L
8c/
8a/
8g/J
=11
4.e/
8b\
4.a/
8ee\
=12
8dd\L
8cc\
8b\
8g\J
4.dd\
8cc\
=13
8b/L
8a/
8g/
8e/J
4.b\
8a/
=14
8g/L
8e/
8d/
8e/J
4A/
4B/
=15
!!linebreak:original
2c/
2r
==
*-
